scripts/debs/qogir-icon-theme/usr/share/icons/Qogir/scalable/mimetypes/application-toml.svg

<svg xmlns="http://www.w3.org/2000/svg" width="64" height="64" viewBox="0 0 16.933 16.933"><path fill="#fafafa" d="M2.379.268h12.173v15.343H2.38V.268Z" style="stroke-width:.26458"/><path fill="none" stroke="#4f6698" stroke-linejoin="round" stroke-opacity=".267" stroke-width=".264" d="M2.249.133h12.435v15.61H2.249Z"/><rect width="16.933" height="16.933" fill="none" opacity=".75" rx="0" ry="0" style="stroke-width:.26458"/><path fill="#b4bfd8" d="M4.233 2.381v.265h.844V2.38Zm.955 0v.265h.8V2.38Zm.91 0v.265h.7V2.38Zm.811 0v.265h.311V2.38Zm.422 0v.265h.688V2.38Zm.81 0v.265h1.777V2.38Zm-3.908.794v.265h1.344v-.265Zm1.477 0v.265h.644v-.265Zm.766 0v.265h.3v-.265Zm.433 0v.265h.578v-.265Zm.71 0v.265h.578v-.265Zm.7 0v.265h.944v-.265Zm1.077 0v.265h1.233v-.265ZM7.41 13.494v.264h.866v-.264zm.977 0v.264h.8v-.264zm.921 0v.264h.689v-.264zm.8 0v.264h1.099v-.264zm1.221 0v.264h1.788v-.264ZM6.41 12.7v.265h.288V12.7Zm.366 0v.265h.577V12.7Zm.666 0v.265h.577V12.7Zm.755 0v.265h.922V12.7Zm1.033 0v.265h1.199V12.7Zm1.365 0v.265h.81V12.7Zm.91 0v.265h.19V12.7Zm-7.272.794h1.08v.264h-1.08Zm.001-.794v.265h1.31V12.7Zm1.41 0v.265h.632V12.7Zm-.223.794v.264H6.61v-.264z"/><path fill="#fafafa" d="M3.704 3.704h3.97v.529h-3.97zM3.968 4.498h3.704v.529H3.968zm5.292 7.408h3.704v.529H9.26z"/><path d="M28.6 30.5h75.1v37.3H69v262.7h34.7V368H28.6Z" class="st1" style="fill:#a2a2a2;stroke-width:11.2504;fill-opacity:1" transform="matrix(.02352 0 0 .02352 3.83 3.253)"/><path d="M276.4 101.5v39.1h-60.1v181.9H174V140.6h-60.4v-39.1z" style="stroke-width:11.2504;fill:#666" transform="matrix(.02352 0 0 .02352 3.83 3.253)"/><path d="M365.7 368h-75.1v-37.3h34.7V68h-34.7V30.5h75.1z" class="st1" style="fill:#a2a2a2;stroke-width:11.2504;fill-opacity:1" transform="matrix(.02352 0 0 .02352 3.83 3.253)"/></svg>

<?xml version="1.0" encoding="UTF-8" standalone="no"?>
<svg
   width="64"
   height="64"
   version="1.1"
   viewBox="0 0 16.933 16.933"
   id="svg20"
   sodipodi:docname="text-toml.svg"
   inkscape:version="1.1 (c68e22c387, 2021-05-23)"
   xmlns:inkscape="http://www.inkscape.org/namespaces/inkscape"
   xmlns:sodipodi="http://sodipodi.sourceforge.net/DTD/sodipodi-0.dtd"
   xmlns="http://www.w3.org/2000/svg"
   xmlns:svg="http://www.w3.org/2000/svg">
  <defs
     id="defs24" />
  <sodipodi:namedview
     id="namedview22"
     pagecolor="#ffffff"
     bordercolor="#666666"
     borderopacity="1.0"
     inkscape:pageshadow="2"
     inkscape:pageopacity="0.0"
     inkscape:pagecheckerboard="0"
     showgrid="false"
     inkscape:zoom="8.7393979"
     inkscape:cx="-7.0370981"
     inkscape:cy="38.561009"
     inkscape:window-width="2560"
     inkscape:window-height="1378"
     inkscape:window-x="0"
     inkscape:window-y="0"
     inkscape:window-maximized="1"
     inkscape:current-layer="g1140" />
  <path
     d="M 2.3788388,0.26777918 14.552165,0.2688375 V 15.610509 H 2.3791034 V 0.26777918 Z"
     fill="#fafafa"
     id="path2"
     style="stroke-width:0.26458" />
  <path
     d="m 2.2489829,0.13268463 12.4347311,0.001064 V 15.743763 H 2.2489829 Z"
     fill="none"
     stroke="#4f6698"
     stroke-linejoin="round"
     stroke-opacity="0.267"
     stroke-width="0.264485"
     id="path4" />
  <rect
     y="0.00028492432"
     width="16.933121"
     height="16.933121"
     rx="0"
     ry="0"
     fill="none"
     opacity="0.75"
     id="rect6"
     x="0"
     style="stroke-width:0.26458" />
  <path
     d="M 4.233,2.381 V 2.646 H 5.077 V 2.38 Z m 0.955,0 v 0.265 h 0.8 V 2.38 Z m 0.91,0 v 0.265 h 0.7 V 2.38 Z m 0.811,0 V 2.646 H 7.22 V 2.38 Z m 0.422,0 V 2.646 H 8.019 V 2.38 Z m 0.81,0 V 2.646 H 9.918 V 2.38 Z M 4.233,3.175 V 3.44 H 5.577 V 3.175 Z m 1.477,0 V 3.44 H 6.354 V 3.175 Z m 0.766,0 V 3.44 h 0.3 V 3.175 Z m 0.433,0 V 3.44 H 7.487 V 3.175 Z m 0.71,0 V 3.44 H 8.197 V 3.175 Z m 0.7,0 V 3.44 H 9.263 V 3.175 Z m 1.077,0 V 3.44 h 1.233 V 3.175 Z M 7.41,13.494 v 0.264 h 0.866 v -0.264 z m 0.977,0 v 0.264 h 0.8 v -0.264 z m 0.921,0 v 0.264 h 0.689 v -0.264 z m 0.8,0 v 0.264 h 1.099 v -0.264 z m 1.221,0 v 0.264 h 1.788 V 13.494 Z M 6.41,12.7 v 0.265 H 6.698 V 12.7 Z m 0.366,0 v 0.265 H 7.353 V 12.7 Z m 0.666,0 v 0.265 H 8.019 V 12.7 Z m 0.755,0 v 0.265 H 9.119 V 12.7 Z m 1.033,0 v 0.265 h 1.199 V 12.7 Z m 1.365,0 v 0.265 h 0.81 V 12.7 Z m 0.91,0 v 0.265 h 0.19 V 12.7 Z m -7.272,0.794 h 1.08 v 0.264 H 4.233 Z M 4.234,12.7 v 0.265 h 1.31 V 12.7 Z m 1.41,0 v 0.265 H 6.276 V 12.7 Z m -0.223,0.794 v 0.264 H 6.61 v -0.264 z"
     fill="#b4bfd8"
     id="path10"
     sodipodi:nodetypes="ccccccccccccccccccccccccccccccccccccccccccccccccccccccccccccccccccccccccccccccccccccccccccccccccccccccccccccccccccccccccccccccccccccccccccccccccc" />
  <path
     d="M3.704 3.704h3.97v.529h-3.97z"
     fill="#fafafa"
     id="path12" />
  <path
     d="M3.968 4.498h3.704v.529H3.968zm5.292 7.408h3.704v.529H9.26z"
     fill="#fafafa"
     id="path14" />
  <g
     id="g1140"
     transform="translate(20.04861,0.51196701)">
    <g
       id="XMLID_11_"
       style="fill:#a2a2a2;stroke-width:11.2504;fill-opacity:1"
       transform="matrix(0.02351723,0,0,0.02351723,-16.21953,2.741369)">
      <path
         id="XMLID_12_"
         class="st1"
         d="m 28.6,30.5 h 75.1 V 67.8 H 69 v 262.7 h 34.7 V 368 H 28.6 Z"
         style="fill:#a2a2a2;stroke-width:11.2504;fill-opacity:1" />
    </g>
    <g
       id="XMLID_4_"
       style="stroke-width:11.2504;fill:#666666"
       transform="matrix(0.02351723,0,0,0.02351723,-16.21953,2.741369)">
      <path
         id="XMLID_6_"
         d="m 276.4,101.5 v 39.1 H 216.3 V 322.5 H 174 V 140.6 h -60.4 v -39.1 z"
         style="stroke-width:11.2504;fill:#666666" />
    </g>
    <g
       id="XMLID_3_"
       style="fill:#a2a2a2;stroke-width:11.2504;fill-opacity:1"
       transform="matrix(0.02351723,0,0,0.02351723,-16.21953,2.741369)">
      <path
         id="XMLID_5_"
         class="st1"
         d="m 365.7,368 h -75.1 v -37.3 h 34.7 V 68 H 290.6 V 30.5 h 75.1 z"
         style="fill:#a2a2a2;stroke-width:11.2504;fill-opacity:1" />
    </g>
  </g>
</svg>
